X: 7
T:Melvin Head (#117)
M:6/8
L:1/8
S:Sergt. James O'Neill manuscripts
K:G
D/2E/2|:G3 AGE|A2 A AGE|G3 AGE|GAB AGE|
G3 AGE|ABA ABc|BAG AGE|GAB GED:|
|:BGG AGG|BGG AGE|BGG AGF|G3 GED|
BGG cAA|dBB cAA|BGG AGE|G3 GED:|
|:egf/2g/2 dBG|ABA A2 d|egf/2g/2 dBG|Dgf g2 a|
bag agf|gfe dBG|BAG AGE|G3 GED:|
|:G2 c BGd|BGd AGE|G2 c BGd|AFd AFD|
G2 c BGd|BGd ABc|GFG AGE|G3 GED:|
|:DFD DED|A3 AGE|DFD DED|G3 GED|
DFD DED|ABA ABc|BAG AGE|G3 GED:||

